images/Expo_title.svg

<svg width="322" height="54" viewBox="0 0 322 54" fill="none" xmlns="http://www.w3.org/2000/svg">
<path d="M20.5117 34.375C20.5117 33.821 20.4294 33.3268 20.2646 32.8926C20.0999 32.4434 19.8005 32.0316 19.3662 31.6572C18.932 31.2829 18.318 30.9085 17.5244 30.5342C16.7308 30.1449 15.6901 29.748 14.4023 29.3438C12.9349 28.8646 11.5348 28.3255 10.2021 27.7266C8.88444 27.1126 7.70898 26.4014 6.67578 25.5928C5.64258 24.7842 4.8265 23.8408 4.22754 22.7627C3.64355 21.6846 3.35156 20.4268 3.35156 18.9893C3.35156 17.5967 3.65853 16.3389 4.27246 15.2158C4.88639 14.0928 5.7474 13.1344 6.85547 12.3408C7.96354 11.5322 9.26628 10.9183 10.7637 10.499C12.2611 10.0648 13.9082 9.84766 15.7051 9.84766C18.1009 9.84766 20.2048 10.2744 22.0166 11.1279C23.8434 11.9665 25.266 13.1494 26.2842 14.6768C27.3024 16.1891 27.8115 17.9486 27.8115 19.9551H20.5342C20.5342 19.0716 20.347 18.293 19.9727 17.6191C19.6133 16.9303 19.0592 16.3913 18.3105 16.002C17.5768 15.6126 16.6559 15.418 15.5479 15.418C14.4697 15.418 13.5638 15.5827 12.8301 15.9121C12.1113 16.2266 11.5648 16.6608 11.1904 17.2148C10.8311 17.7689 10.6514 18.3753 10.6514 19.0342C10.6514 19.5583 10.7861 20.0374 11.0557 20.4717C11.3402 20.891 11.7445 21.2878 12.2686 21.6621C12.8076 22.0215 13.4665 22.3659 14.2451 22.6953C15.0238 23.0247 15.9147 23.3392 16.918 23.6387C18.6699 24.1927 20.2197 24.8066 21.5674 25.4805C22.93 26.1543 24.0755 26.918 25.0039 27.7715C25.9323 28.625 26.6286 29.5908 27.0928 30.6689C27.5719 31.7471 27.8115 32.9674 27.8115 34.3301C27.8115 35.7826 27.527 37.0703 26.958 38.1934C26.404 39.3164 25.5954 40.2747 24.5322 41.0684C23.484 41.847 22.2262 42.4385 20.7588 42.8428C19.2913 43.2471 17.6517 43.4492 15.8398 43.4492C14.1927 43.4492 12.568 43.2396 10.9658 42.8203C9.36361 42.3861 7.91113 41.7272 6.6084 40.8438C5.32064 39.9603 4.28743 38.8372 3.50879 37.4746C2.74512 36.097 2.36328 34.4648 2.36328 32.5781H9.68555C9.68555 33.5664 9.8278 34.4049 10.1123 35.0938C10.3968 35.7676 10.8011 36.3141 11.3252 36.7334C11.8643 37.1527 12.5156 37.4521 13.2793 37.6318C14.043 37.8115 14.8965 37.9014 15.8398 37.9014C16.9329 37.9014 17.8164 37.7516 18.4902 37.4521C19.179 37.1377 19.6882 36.7109 20.0176 36.1719C20.347 35.6328 20.5117 35.0339 20.5117 34.375ZM45.7129 16.5186L37.2676 43H29.4512L41.5576 10.2969H46.499L45.7129 16.5186ZM52.7207 43L44.2529 16.5186L43.377 10.2969H48.3857L60.5371 43H52.7207ZM52.3613 30.8262V36.4863H35.3135V30.8262H52.3613ZM80.752 10.2969H88.0742V31.7695C88.0742 34.3151 87.5352 36.4564 86.457 38.1934C85.3939 39.9303 83.9115 41.2406 82.0098 42.124C80.1081 43.0075 77.9069 43.4492 75.4062 43.4492C72.8906 43.4492 70.6745 43.0075 68.7578 42.124C66.8561 41.2406 65.3587 39.9303 64.2656 38.1934C63.1875 36.4564 62.6484 34.3151 62.6484 31.7695V10.2969H69.9932V31.7695C69.9932 33.1771 70.2028 34.3301 70.6221 35.2285C71.0563 36.112 71.6777 36.7633 72.4863 37.1826C73.2949 37.5869 74.2682 37.7891 75.4062 37.7891C76.5443 37.7891 77.5101 37.5869 78.3037 37.1826C79.1123 36.7633 79.7188 36.112 80.123 35.2285C80.5423 34.3301 80.752 33.1771 80.752 31.7695V10.2969ZM103.662 43H96.4746L96.5195 37.3398H103.662C105.294 37.3398 106.672 36.9655 107.795 36.2168C108.918 35.4531 109.771 34.3301 110.355 32.8477C110.939 31.3503 111.231 29.5309 111.231 27.3896V25.8848C111.231 24.2676 111.067 22.8451 110.737 21.6172C110.408 20.3743 109.921 19.3337 109.277 18.4951C108.633 17.6566 107.832 17.0277 106.874 16.6084C105.931 16.1891 104.845 15.9795 103.617 15.9795H96.3398V10.2969H103.617C105.833 10.2969 107.855 10.6712 109.682 11.4199C111.523 12.1686 113.111 13.2393 114.443 14.6318C115.791 16.0244 116.832 17.6715 117.565 19.5732C118.299 21.4749 118.666 23.5938 118.666 25.9297V27.3896C118.666 29.7106 118.299 31.8294 117.565 33.7461C116.832 35.6478 115.791 37.2949 114.443 38.6875C113.111 40.0651 111.531 41.1283 109.704 41.877C107.877 42.6257 105.863 43 103.662 43ZM100.63 10.2969V43H93.3076V10.2969H100.63ZM130.93 10.2969V43H123.63V10.2969H130.93Z" fill="url(#paint0_linear_9_35)"/>
<path d="M163.961 37.3398V43H146.554V37.3398H163.961ZM149.047 10.2969V43H141.725V10.2969H149.047ZM161.715 23.459V28.9395H146.554V23.459H161.715ZM163.984 10.2969V15.9795H146.554V10.2969H163.984ZM173.754 10.2969L179.504 21.4375L185.254 10.2969H193.61L184.311 26.5137L193.857 43H185.434L179.504 31.6572L173.597 43H165.152L174.72 26.5137L165.399 10.2969H173.754ZM209.737 31.6348H201.516V25.9521H209.737C210.949 25.9521 211.923 25.75 212.656 25.3457C213.405 24.9414 213.952 24.3874 214.296 23.6836C214.655 22.9648 214.835 22.1562 214.835 21.2578C214.835 20.3294 214.655 19.4684 214.296 18.6748C213.952 17.8662 213.405 17.2148 212.656 16.7207C211.923 16.2266 210.949 15.9795 209.737 15.9795H204.166V43H196.844V10.2969H209.737C212.342 10.2969 214.573 10.7686 216.43 11.7119C218.302 12.6553 219.732 13.9505 220.72 15.5977C221.723 17.2298 222.225 19.1016 222.225 21.2129C222.225 23.3242 221.723 25.1585 220.72 26.7158C219.732 28.2731 218.302 29.486 216.43 30.3545C214.573 31.208 212.342 31.6348 209.737 31.6348ZM253.94 25.9297V27.3896C253.94 29.8753 253.595 32.1064 252.906 34.083C252.233 36.0596 251.267 37.7441 250.009 39.1367C248.766 40.5293 247.284 41.5999 245.562 42.3486C243.855 43.0824 241.96 43.4492 239.879 43.4492C237.798 43.4492 235.896 43.0824 234.174 42.3486C232.452 41.5999 230.955 40.5293 229.682 39.1367C228.424 37.7441 227.451 36.0596 226.762 34.083C226.073 32.1064 225.729 29.8753 225.729 27.3896V25.9297C225.729 23.444 226.073 21.2129 226.762 19.2363C227.451 17.2448 228.417 15.5527 229.659 14.1602C230.917 12.7676 232.407 11.7044 234.129 10.9707C235.851 10.222 237.753 9.84766 239.834 9.84766C241.916 9.84766 243.817 10.222 245.539 10.9707C247.261 11.7044 248.744 12.7676 249.987 14.1602C251.244 15.5527 252.218 17.2448 252.906 19.2363C253.595 21.2129 253.94 23.444 253.94 25.9297ZM246.55 27.3896V25.8848C246.55 24.2227 246.4 22.7552 246.101 21.4824C245.801 20.1947 245.367 19.1165 244.798 18.248C244.229 17.3796 243.525 16.7282 242.687 16.2939C241.848 15.8447 240.897 15.6201 239.834 15.6201C238.726 15.6201 237.76 15.8447 236.937 16.2939C236.113 16.7282 235.417 17.3796 234.848 18.248C234.294 19.1165 233.867 20.1947 233.568 21.4824C233.283 22.7552 233.141 24.2227 233.141 25.8848V27.3896C233.141 29.0368 233.283 30.5042 233.568 31.792C233.867 33.0648 234.301 34.1429 234.87 35.0264C235.439 35.9098 236.136 36.5762 236.959 37.0254C237.798 37.4746 238.771 37.6992 239.879 37.6992C240.942 37.6992 241.886 37.4746 242.709 37.0254C243.548 36.5762 244.251 35.9098 244.82 35.0264C245.389 34.1429 245.816 33.0648 246.101 31.792C246.4 30.5042 246.55 29.0368 246.55 27.3896ZM291.921 37.542V43H269.325V38.373L279.882 27.1875C280.87 26.0495 281.656 25.0462 282.24 24.1777C282.839 23.3092 283.274 22.5231 283.543 21.8193C283.813 21.1006 283.947 20.4417 283.947 19.8428C283.947 18.8695 283.79 18.0459 283.476 17.3721C283.176 16.6982 282.735 16.1816 282.151 15.8223C281.567 15.4629 280.855 15.2832 280.017 15.2832C279.118 15.2832 278.347 15.5153 277.703 15.9795C277.059 16.4437 276.565 17.0876 276.221 17.9111C275.876 18.7197 275.704 19.6406 275.704 20.6738H268.652C268.652 18.6823 269.131 16.8704 270.089 15.2383C271.047 13.5911 272.388 12.2809 274.11 11.3076C275.832 10.3193 277.846 9.8252 280.152 9.8252C282.517 9.8252 284.501 10.1995 286.104 10.9482C287.706 11.6969 288.919 12.7676 289.742 14.1602C290.566 15.5527 290.978 17.2298 290.978 19.1914C290.978 20.2995 290.798 21.3701 290.439 22.4033C290.094 23.4365 289.593 24.4622 288.934 25.4805C288.275 26.4987 287.481 27.5394 286.553 28.6025C285.625 29.6507 284.576 30.7588 283.408 31.9268L278.467 37.542H291.921ZM318.47 37.542V43H295.874V38.373L306.431 27.1875C307.419 26.0495 308.205 25.0462 308.789 24.1777C309.388 23.3092 309.822 22.5231 310.092 21.8193C310.362 21.1006 310.496 20.4417 310.496 19.8428C310.496 18.8695 310.339 18.0459 310.025 17.3721C309.725 16.6982 309.283 16.1816 308.699 15.8223C308.115 15.4629 307.404 15.2832 306.566 15.2832C305.667 15.2832 304.896 15.5153 304.252 15.9795C303.608 16.4437 303.114 17.0876 302.77 17.9111C302.425 18.7197 302.253 19.6406 302.253 20.6738H295.2C295.2 18.6823 295.68 16.8704 296.638 15.2383C297.596 13.5911 298.936 12.2809 300.658 11.3076C302.38 10.3193 304.394 9.8252 306.7 9.8252C309.066 9.8252 311.05 10.1995 312.653 10.9482C314.255 11.6969 315.468 12.7676 316.291 14.1602C317.115 15.5527 317.527 17.2298 317.527 19.1914C317.527 20.2995 317.347 21.3701 316.987 22.4033C316.643 23.4365 316.141 24.4622 315.483 25.4805C314.824 26.4987 314.03 27.5394 313.102 28.6025C312.173 29.6507 311.125 30.7588 309.957 31.9268L305.016 37.542H318.47Z" fill="white"/>
<defs>
<linearGradient id="paint0_linear_9_35" x1="-11.0455" y1="1.65985e-05" x2="135" y2="42.9545" gradientUnits="userSpaceOnUse">
<stop offset="0.046875" stop-color="#D1913C"/>
<stop offset="0.53897" stop-color="#FFD194"/>
<stop offset="1" stop-color="#D1913C"/>
</linearGradient>
</defs>
</svg>

<svg width="322" height="54" fill="none" xmlns="http://www.w3.org/2000/svg"><path d="M20.512 34.375c0-.554-.083-1.048-.247-1.482-.165-.45-.465-.861-.899-1.236-.434-.374-1.048-.748-1.842-1.123-.793-.39-1.834-.786-3.122-1.19a42.196 42.196 0 01-4.2-1.617 18.095 18.095 0 01-3.526-2.134c-1.033-.809-1.85-1.752-2.448-2.83-.584-1.078-.876-2.336-.876-3.774 0-1.392.307-2.65.92-3.773.614-1.123 1.475-2.082 2.583-2.875 1.109-.809 2.411-1.423 3.909-1.842 1.497-.434 3.144-.651 4.941-.651 2.396 0 4.5.426 6.312 1.28 1.826.838 3.249 2.021 4.267 3.549 1.018 1.512 1.527 3.272 1.527 5.278h-7.277c0-.883-.187-1.662-.561-2.336-.36-.689-.914-1.228-1.662-1.617-.734-.39-1.655-.584-2.763-.584-1.078 0-1.984.165-2.718.494-.719.315-1.265.749-1.64 1.303a3.277 3.277 0 00-.539 1.82c0 .523.135 1.002.405 1.437.284.419.689.816 1.213 1.19.539.36 1.197.704 1.976 1.033.779.33 1.67.644 2.673.944 1.752.554 3.302 1.168 4.65 1.841 1.362.674 2.508 1.438 3.436 2.291.928.854 1.625 1.82 2.089 2.898.479 1.078.718 2.298.718 3.661 0 1.453-.284 2.74-.853 3.863-.554 1.123-1.363 2.082-2.426 2.875-1.048.779-2.306 1.37-3.773 1.775-1.468.404-3.107.606-4.92.606-1.646 0-3.271-.21-4.873-.629a14.42 14.42 0 01-4.358-1.976 10.125 10.125 0 01-3.1-3.37c-.763-1.377-1.145-3.01-1.145-4.896h7.323c0 .988.142 1.827.426 2.516.285.674.69 1.22 1.213 1.64.54.419 1.19.718 1.954.898.764.18 1.617.27 2.56.27 1.094 0 1.977-.15 2.651-.45.689-.314 1.198-.741 1.528-1.28.329-.54.494-1.138.494-1.797zm25.2-17.856L37.269 43H29.45l12.107-32.703h4.941l-.786 6.222zM52.722 43l-8.468-26.481-.876-6.222h5.009L60.537 43h-7.816zm-.36-12.174v5.66H35.314v-5.66H52.36zm28.391-20.53h7.322V31.77c0 2.545-.539 4.686-1.617 6.423-1.063 1.737-2.545 3.048-4.447 3.931-1.902.883-4.103 1.325-6.604 1.325-2.515 0-4.732-.441-6.648-1.325-1.902-.883-3.4-2.194-4.492-3.93-1.079-1.738-1.618-3.879-1.618-6.425V10.297h7.345V31.77c0 1.407.21 2.56.63 3.458.433.884 1.055 1.535 1.863 1.955.809.404 1.782.606 2.92.606s2.104-.202 2.898-.606c.808-.42 1.415-1.071 1.819-1.955.42-.898.629-2.05.629-3.459V10.297zM103.662 43h-7.187l.044-5.66h7.143c1.632 0 3.01-.375 4.133-1.123 1.123-.764 1.976-1.887 2.56-3.37.584-1.497.876-3.316.876-5.457v-1.505c0-1.617-.164-3.04-.494-4.268-.329-1.243-.816-2.283-1.46-3.122a6.04 6.04 0 00-2.403-1.887c-.943-.419-2.029-.629-3.257-.629H96.34v-5.682h7.277c2.216 0 4.238.374 6.065 1.123 1.841.749 3.429 1.82 4.761 3.212 1.348 1.392 2.389 3.04 3.122 4.941.734 1.902 1.101 4.02 1.101 6.357v1.46c0 2.32-.367 4.44-1.101 6.356-.733 1.902-1.774 3.549-3.122 4.941a13.777 13.777 0 01-4.739 3.19c-1.827.749-3.841 1.123-6.042 1.123zm-3.032-32.703V43h-7.322V10.297h7.322zm30.3 0V43h-7.3V10.297h7.3z" fill="url(#paint0_linear_9_35)"/><path d="M163.961 37.34V43h-17.407v-5.66h17.407zm-14.914-27.043V43h-7.322V10.297h7.322zm12.668 13.162v5.48h-15.161v-5.48h15.161zm2.269-13.162v5.682h-17.43v-5.682h17.43zm9.77 0l5.75 11.14 5.75-11.14h8.356l-9.299 16.217L193.857 43h-8.423l-5.93-11.343L173.597 43h-8.445l9.568-16.486-9.321-16.217h8.355zm35.983 21.338h-8.221v-5.683h8.221c1.212 0 2.186-.202 2.919-.606.749-.405 1.296-.959 1.64-1.662.359-.72.539-1.528.539-2.426 0-.929-.18-1.79-.539-2.583a4.33 4.33 0 00-1.64-1.954c-.733-.494-1.707-.742-2.919-.742h-5.571V43h-7.322V10.297h12.893c2.605 0 4.836.472 6.693 1.415 1.872.943 3.302 2.239 4.29 3.886 1.003 1.632 1.505 3.504 1.505 5.615s-.502 3.945-1.505 5.503c-.988 1.557-2.418 2.77-4.29 3.639-1.857.853-4.088 1.28-6.693 1.28zm44.203-5.705v1.46c0 2.485-.345 4.716-1.034 6.693-.673 1.977-1.639 3.661-2.897 5.054a12.65 12.65 0 01-4.447 3.212c-1.707.733-3.602 1.1-5.683 1.1s-3.983-.367-5.705-1.1a13.097 13.097 0 01-4.492-3.212c-1.258-1.393-2.231-3.077-2.92-5.054-.689-1.977-1.033-4.208-1.033-6.693v-1.46c0-2.486.344-4.717 1.033-6.694.689-1.991 1.655-3.683 2.897-5.076a12.624 12.624 0 014.47-3.19c1.722-.748 3.624-1.122 5.705-1.122 2.082 0 3.983.374 5.705 1.123a12.411 12.411 0 014.448 3.19c1.257 1.392 2.231 3.084 2.919 5.075.689 1.977 1.034 4.208 1.034 6.694zm-7.39 1.46v-1.505c0-1.662-.15-3.13-.449-4.403-.3-1.287-.734-2.366-1.303-3.234-.569-.868-1.273-1.52-2.111-1.954-.839-.45-1.79-.674-2.853-.674-1.108 0-2.074.225-2.897.674-.824.434-1.52 1.086-2.089 1.954-.554.868-.981 1.947-1.28 3.234-.285 1.273-.427 2.74-.427 4.403v1.505c0 1.647.142 3.114.427 4.402.299 1.273.733 2.35 1.302 3.234.569.884 1.266 1.55 2.089 2 .839.449 1.812.673 2.92.673 1.063 0 2.007-.224 2.83-.674.839-.449 1.542-1.115 2.111-1.999.569-.883.996-1.961 1.281-3.234.299-1.288.449-2.755.449-4.402zm45.371 10.152V43h-22.596v-4.627l10.557-11.185c.988-1.139 1.774-2.142 2.358-3.01.599-.869 1.034-1.655 1.303-2.359.27-.718.404-1.377.404-1.976 0-.974-.157-1.797-.471-2.47-.3-.675-.741-1.191-1.325-1.55-.584-.36-1.296-.54-2.134-.54-.899 0-1.67.232-2.314.697-.644.464-1.138 1.108-1.482 1.931-.345.809-.517 1.73-.517 2.763h-7.052c0-1.992.479-3.804 1.437-5.436.958-1.647 2.299-2.957 4.021-3.93 1.722-.989 3.736-1.483 6.042-1.483 2.365 0 4.349.375 5.952 1.123 1.602.749 2.815 1.82 3.638 3.212.824 1.393 1.236 3.07 1.236 5.031 0 1.108-.18 2.18-.539 3.212a13.596 13.596 0 01-1.505 3.078 27.524 27.524 0 01-2.381 3.121 75.756 75.756 0 01-3.145 3.325l-4.941 5.615h13.454zm26.549 0V43h-22.596v-4.627l10.557-11.185c.988-1.139 1.774-2.142 2.358-3.01.599-.869 1.033-1.655 1.303-2.359.27-.718.404-1.377.404-1.976 0-.974-.157-1.797-.471-2.47-.3-.675-.742-1.191-1.326-1.55-.584-.36-1.295-.54-2.133-.54-.899 0-1.67.232-2.314.697-.644.464-1.138 1.108-1.482 1.931-.345.809-.517 1.73-.517 2.763H295.2c0-1.992.48-3.804 1.438-5.436.958-1.647 2.298-2.957 4.02-3.93 1.722-.989 3.736-1.483 6.042-1.483 2.366 0 4.35.375 5.953 1.123 1.602.749 2.815 1.82 3.638 3.212.824 1.393 1.236 3.07 1.236 5.031 0 1.108-.18 2.18-.54 3.212a13.591 13.591 0 01-1.504 3.078 27.524 27.524 0 01-2.381 3.121 76.36 76.36 0 01-3.145 3.325l-4.941 5.615h13.454z" fill="#fff"/><defs><linearGradient id="paint0_linear_9_35" x1="-11.046" y1="0" x2="135" y2="42.955" gradientUnits="userSpaceOnUse"><stop offset=".047" stop-color="#D1913C"/><stop offset=".539" stop-color="#FFD194"/><stop offset="1" stop-color="#D1913C"/></linearGradient></defs></svg>
